X: 27466
T: Molly Mogg
R: reel
M: 4/4
K: Gmajor
d2|B2AG d2cB|edg4fe|d2dc BdcB|A4z2DE|FGAB cGFG|
e2d4e2|f^cde A2d^c|d6||d^c|d2BA B2GF|E2e4dc|
BABG cBcA|F4z2d2|ecBA dBAG|f2g2 fedc|BGABD2GF|
G4z2d2|ecBA dBAG|f2g2z2A2|BFGA D2GF|G6||

